X:166
T:Old Couple - Langworthy
%%VWML:SBG-1-2-811-0
F:http://www.vwml.org/record/SBG/1/2/811
Z:Original Sibelius transcriptions by M. & S. Graebe
M:6/8
I:linebreak $
K:F
V:1 treble nm="P1"
V:1
 C | F F F F F F | D2 D C3 | A2 F A2 F | c3 z2 G | G G G G A B | c2 A F2 F |$ D D D D2 F | %8
w: There|was * * * * *||Tweedle * * *|* There|was an old * * *|* * * They|lived in a house *|
 G F E C2 z | F z C D D C | D D E F3 | F z C D D C | D D E F3 | %13
w: |O! what an _ old|couple _ & wee!|O! what &c. * *||
T:Old Couple - Miss Sheppard
F:http://www.vwml.org/record/SBG/1/2/811
Z:Original Sibelius transcriptions by M. & S. Graebe
M:6/8
I:linebreak $
K:G
V:1 treble nm="P1"
V:1
 D2 | G2 G G2 G | F2 E D3 | (B2 G) (B2 G) | d3 B | A2 A A2 G | F2 E D2 D |$ G2 G G2 G | F2 E D2 D | %9
w: There|was~an old couple &|they were poor|Oo- * oo- *|oo There|was ..... * *|* * * They|lived~in a house _|without _ any door|
 E2"^chorus" E F E F | G3 C | E2 E F E F | G4 x2 | %13
w: For~very poor cou- ple were|they. For~a|very poor cou- ple were|they.|

